X: 4271
T: Lord Spencer Chichester's    Strathspey
C: by Nath. Gow
%R: strathspey, air
B: Niel Gow & Sons "A Fourth Collection of Strathspey Reels, etc." v.4 p.27 #1 (top 4 staves continued from p.26)
Z: 2022 John Chambers <jc:trillian.mit.edu>
M: C
L: 1/8
Q: "Slow"
K: F
% - - - - - - - - - -
% Voice 1 reformatted for 2 8-bar lines, for compactness and proofreading.
V: 1 staves=2
C |\
TF>GFC D<F TF2 | TF>G {FG}A>C D<G TG2 | ~F>GAc (df)(c.f) | Tc>A B>G AFFC ||\
TF>GFC D<F TF2 | TF>G {FG}A>C D<G TG2 | ~F>GAc (df)(c.f) | Tc>A B>G AFF |]
[| c |\
Tf>gfc d<f Tf2 | (f/e/f/g/) f>c d<g Tg2 | Tf>g fc (d.f) (c.f) | Tc>A B>G AFF>c ||\
(f/e/f/g/) f>c d<f Tf2 | (f/e/f/g/) {fg}a>c d<g Tg2 | f>ad>f Tc>d HA>f | Tc>AGc AFF |]
% - - - - - - - - - -
% Voice 2 preserves the staff layout in the book.
V: 2 clef=bass middle=d
z | F2A2 B2A2 | F2F>A B2c2 | Acf2 b2a2 | f2c2 F2F2 || f2A2 B2A2 |
F2F>A B2c2 | Acf2 b2a2 | f2c2 F2F |][| z | a2f2 b2a2 | f3a b2c'2 | a2f2 b2a2 |
f2c2 F2F2 || f2a2 b2a2 | f2f>a b2c'2 | a2b2 a2Hf2 | f2c2 F2F |]


